img/vector-17.svg

<svg fill="none" height="46" viewBox="0 0 81 46" width="81" xmlns="http://www.w3.org/2000/svg"><path d="m69.1773 23.0852 10.905 11.2502c.9077.9364.7006 2.4753-.4224 3.1384-.6812.4022-1.5347.3688-2.1824-.0856l-10.6263-7.455c-3.8883-2.7278-8.8142-3.518-13.3606-2.1432l-7.5329 2.2778c-2.2078.6676-2.5235 3.663-.5035 4.7763l10.0898 5.5606c1.5221.8389 1.9622 2.8233.9375 4.2269-.6814.9333-1.8539 1.3699-2.9796 1.1095l-17.5167-4.051c-7.8277-1.9996-14.9699-6.0766-20.6718-11.8002l-12.35897-12.4062c-4.56335-4.5807-3.586523-12.23436 1.98108-15.52212 3.41351-2.0157358 7.69999-1.802461 10.89659.54216l10.2092 7.48827c4.0238 2.95139 8.7019 4.88559 13.6352 5.63759l21.3552 3.2551c3.1012.4727 5.9622 1.9481 8.1456 4.2005z" fill="#5b57ca"/></svg>

<svg width="81" height="46" viewBox="0 0 81 46" fill="none" xmlns="http://www.w3.org/2000/svg">
<path d="M69.1773 23.0852L80.0823 34.3354C80.99 35.2718 80.7829 36.8107 79.6599 37.4738C78.9787 37.876 78.1252 37.8426 77.4775 37.3882L66.8512 29.9332C62.9629 27.2054 58.037 26.4152 53.4906 27.79L45.9577 30.0678C43.7499 30.7354 43.4342 33.7308 45.4542 34.8441L55.544 40.4047C57.0661 41.2436 57.5062 43.228 56.4815 44.6316C55.8001 45.5649 54.6276 46.0015 53.5019 45.7411L35.9852 41.6901C28.1575 39.6905 21.0153 35.6135 15.3134 29.8899L2.95443 17.4837C-1.60892 12.903 -0.632093 5.24934 4.93551 1.96158C8.34902 -0.0541558 12.6355 0.159119 15.8321 2.50374L26.0413 9.99201C30.0651 12.9434 34.7432 14.8776 39.6765 15.6296L61.0317 18.8847C64.1329 19.3574 66.9939 20.8328 69.1773 23.0852Z" fill="#5B57CA"/>
</svg>
